Source/images/icons/code.svg

<svg class="icon" style="" viewBox="0 0 1025 1024" version="1.1" xmlns="http://www.w3.org/2000/svg" p-id="14968" xmlns:xlink="http://www.w3.org/1999/xlink" width="200.1953125" height="200"><defs><style type="text/css"></style></defs><path d="M293.0688 755.2c-12.0832 0-24.2688-4.2496-33.9968-12.9024L0 512l273.4592-243.0976C294.5536 250.2144 326.912 252.0064 345.7024 273.152c18.7904 21.1456 16.896 53.504-4.2496 72.2944L154.112 512l172.9536 153.7024c21.1456 18.7904 23.04 51.1488 4.2496 72.2944C321.2288 749.4144 307.1488 755.2 293.0688 755.2zM751.0528 755.0976 1024.512 512l-259.072-230.2976c-21.1456-18.7904-53.504-16.896-72.2432 4.2496-18.7904 21.1456-16.896 53.504 4.2496 72.2944L870.4 512l-187.3408 166.5024c-21.1456 18.7904-23.04 51.1488-4.2496 72.2944C688.896 762.2144 702.976 768 717.056 768 729.1392 768 741.3248 763.7504 751.0528 755.0976zM511.5392 827.648l102.4-614.4c4.6592-27.904-14.1824-54.272-42.0864-58.9312-28.0064-4.7104-54.3232 14.1824-58.88 42.0864l-102.4 614.4c-4.6592 27.904 14.1824 54.272 42.0864 58.9312C455.5264 870.1952 458.2912 870.4 461.1072 870.4 485.6832 870.4 507.392 852.6336 511.5392 827.648z"></path></svg>

<svg class="icon" viewBox="0 0 1025 1024" xmlns="http://www.w3.org/2000/svg" width="200.195" height="200"><defs><style/></defs><path d="M293.069 755.2c-12.083 0-24.269-4.25-33.997-12.902L0 512l273.46-243.098c21.094-18.688 53.452-16.896 72.242 4.25 18.79 21.146 16.896 53.504-4.25 72.294L154.113 512l172.954 153.702c21.145 18.79 23.04 51.15 4.25 72.295-10.087 11.417-24.167 17.203-38.247 17.203zm457.984-.102L1024.512 512 765.44 281.702c-21.146-18.79-53.504-16.896-72.243 4.25-18.79 21.146-16.896 53.504 4.25 72.294L870.4 512 683.06 678.502c-21.146 18.79-23.04 51.15-4.25 72.295C688.896 762.214 702.976 768 717.056 768c12.083 0 24.269-4.25 33.997-12.902zm-239.514 72.55l102.4-614.4c4.66-27.904-14.182-54.272-42.086-58.931-28.007-4.71-54.323 14.182-58.88 42.086l-102.4 614.4c-4.66 27.904 14.182 54.272 42.086 58.931a52.65 52.65 0 0 0 8.448.666c24.576 0 46.285-17.766 50.432-42.752z"/></svg>
